X:1
T:I Loves You Porgy
T:I Loves You Porgy
C:George Gershwin
Z:All Rights Reserved
L:1/8
M:4/4
K:F
V:1 treble nm="Piano" snm="Pno."
%%MIDI program 0
%%MIDI control 7 100
%%MIDI control 10 64
V:1
 Acc |"Fmaj7" e g3 z fcA |"Bbmaj7" A c3 z DFA |"Gm7" c e3"C11" z cAF |"Fmaj7" A4 z DFA | %5
w: I wants to|stay here, but I ain't|wor- thy. You is too|de- cent to un- de-|stan', for when I|
"Am7" c e3"D9" z cA^F |"Gm9" =F A3 z B,DF |"C9" Ac c2 z A"Db9"F"C9"D |"F" F8 ||"Am6" z A_c=c dedc | %10
w: see him, he hyp- no-|tize me when he take|hol' of me with his hot|han'.|Some- day I know he's com- in'|
"Eb9b5" A2 A2"E7b9" c2 _c2 |"Am6" z A_c=c dedc |"Ab7b5" E2 E2"Db7b5" G4 |"Cm6" z cd_e fgf=e | %14
w: back to call me.|He's goin' to han- dle me an'|hol' ,me so.|It's goin' to be like dy- in',|
"F#9b5" cccc"G9" _e2 d2 |"C9" z =eee"Db+" f2 f2 |"Dm7b5" dddd"G7b5" _e4 |"C11" z4 z FAc || %18
w: Por- gy, deep in- side me.|But when he calls, I|kknow I have to go.|I loves you,|
"Fmaj7" e g3 z fcA |"Bbmaj7" A c3 z DFA |"Gm7" c/e/ e3"C11" z cAF |"Fmaj7" A4 z DFA | %22
w: Por- gy, don' let him|take me, don' let him|han- dle me an' drive me|mad. If you kin|
"Am7" c e3"D9" z cA^F |"Gm9" =F A3 z B,DF |"C9" A c3 z A"Db9"F"C9"D |"F" F8 |] %26
w: keep me, I wants to|stay here wid you for-|ev- er, an' I'd be|glad.|

